X:2
T:I'm All Smiles
C:Michael Leonard
L:1/4
M:3/4
I:linebreak $
K:Eb
"Fm" A3 |"Bb7" F3 |"Eb" G3 | D E2 ||[K:Bb]"Cm" B3 |"F7" G3 |"Dm" G3- |"G7" G3 ||[K:D]"Em" d3 |
"A7" B3 |$"D" c3 |"Bm" ^G A2 Ox/||1[K:F]"Gm" B B B |"C7" B A- A/E/ |"Fo" G3- |"F" G3 :|2$
"Gm" B B B |"C7" B A- A/E/ |"Cm" c3- |"F7" c3 ||"Bbø" _d3- |"Eb7" d2 c |"Abø" _c3- |
"Db7" c2 _c ||$[K:Ab]"Bbø" d d d |"Eb7" d E- E/d/ |"Ab" c3- |"Db" c3 ||[K:F]"Gm" c c B |
"C7" c B c |"F" d A2- | A3 |$"Bb" e c G |"Ab7" f d _A |"Gm" G3- |"C7" "_D.C. al Coda" G3 Ox/||
"Gm" B B B |"C7" B A- A/E/ |"F" F3- | F3 |]

